!! Isochronous pitch passage.
!! Treble-line.
!! From Ravel, Daphnis et Chlo\o'e\(..', Rehearsal marking "218"
!! Flutes
!! 3/4 meter
**kern	**metpos
*M3/4	*M3/4
*tb16	*tb16
=218	=218
16r	1
16r	4
16r	3
16r	4
16ee#	2
16ff#	4
16ee#	3
16een	4
16ee#	2
16een	4
16dd#	3
16ddn	4
=219	=219
16b	1
16b#	4
16cc#	3
16ddn	4
16ee#	2
16ff#	4
16ee#	3
16een	4
16ee#	2
16een	4
16dd#	3
16ddn	4
=220	=220
16b	1
16b#	4
16cc#	3
16ddn	4
16ee#	2
16ff#	4
16ee#	3
16een	4
16ee#	2
16een	4
16dd#	3
16ddn	4
=221	=221
16b	1
16b#	4
16cc#	3
16ddn	4
16ee#	2
16ff#	4
16ee#	3
16een	4
16ee#	2
16een	4
16dd#	3
16dn	4
=222	=222
16b	1
16ccn	4
16een	3
16ffn	4
16gg#	2
16r	4
16r	3
16r	4
16r	2
16r	4
16r	3
16r	4
=219	=219
16r	1
16r	4
16r	3
16r	4
16bb-	2
16ccc-	4
16bb-	3
16aa	4
16bb-	2
16aa	4
16aa-	3
16ggn	4
=220	=220
16ee	1
16ffn	4
16ggn	3
16aa-	4
16cccn	2
16ddd-	4
16ccc	3
16bbn	4
16ccc	2
16bb	4
16bb-	3
16aan	4
=221	=221
16ff#	1
16gg#	4
16aa	3
16aa#	4
16ccc#	2
16ddd	4
16ccc#	3
16bb#	4
16ccc#	2
16bb#	4
16bbn	3
16aa#	4
=222	=222
16ff##	1
16gg#	4
16aa#	3
16bb	4
16eee	2
16fffn	4
16eee	3
16ddd#	4
16eee	2
16ddd#	4
16dddn	3
16ccc#	4
=223	=223
16aa#	1
16bb	4
16ccc#	3
16ddd	4
16fff#	2
16r	4
16r	3
16r	4
16r	2
16r	4
16r	3
16r	4
=224	=224
16r	1
16r	4
16r	3
16r	4
16fff#	2
16gggn	4
16eee#	3
16fff#	4
16ggg#	2
16aaa-	4
16fff#	3
16ggg#	4
=225	=225
16ggg#	1
16aaan	4
16fff##	3
16ggg#	4
16aaa	2
16bbb-	4
16ggg#	3
16aaa	4
16aaa#	2
16bbbn	4
16ggg#	3
16aaa#	4
=226	=226
*-	*-
